Origami/48x48/apps/zegrapher.svg

<svg width="48" height="48" version="1" xmlns="http://www.w3.org/2000/svg">
 <rect transform="matrix(0,-1,-1,0,0,0)" x="-44" y="-44" width="40" height="40" rx="2" ry="2" style="fill:#49cbc6"/>
 <path d="m8 14v2h14l-13.919922 18h17.919922v-2h-14l13.919922-18zm25.855469 6c-2.147287 0-3.828274 0.618272-5.042969 1.853516-1.208561 1.229153-1.8125 2.945052-1.8125 5.15039 0 2.199247 0.603939 3.9171 1.8125 5.152344 1.214763 1.229219 2.89575 1.84375 5.042969 1.84375 0.981597 0 1.904482-0.125839 2.769531-0.378906 0.865049-0.259125 1.657239-0.638563 2.375-1.138672v-6.482422h-4.876953v2h2.876953v3.3125 2e-3c-0.411055 0.234899-0.715134 0.40891-1.230469 0.523391-0.515315 0.108455-1.101371 0.162109-1.757812 0.162109-1.680957 0-2.944369-0.460915-3.791016-1.382812-0.840513-0.921897-1.261719-1.793585-1.261719-3.613282 0-1.825721 0.421206-2.697242 1.261719-3.61914 0.846647-0.921897 2.110059-1.384766 3.791016-1.384766h4.988281v-2z" style="fill:#303030"/>
 <path d="m6 4c-1.108 0-2 0.892-2 2v1c0-1.108 0.892-2 2-2h36c1.108 0 2 0.892 2 2v-1c0-1.108-0.892-2-2-2h-36z" fill="#fff" opacity=".2"/>
 <path d="m6 45c-1.108 0-2-0.892-2-2v-1c0 1.108 0.892 2 2 2h36c1.108 0 2-0.892 2-2v1c0 1.108-0.892 2-2 2h-36z" opacity=".2"/>
</svg>

<svg xmlns="http://www.w3.org/2000/svg" width="48" height="48" version="1">
 <rect style="fill:#49cbc6" width="40" height="40" x="-44" y="-44" rx="2" ry="2" transform="matrix(0,-1,-1,0,0,0)"/>
 <path style="fill:#303030" d="M 8,14 8,16 22,16 8.0800781,34 26,34 26,32 12,32 25.919922,14 Z m 25.855469,6 C 31.708182,20 30.027195,20.618272 28.8125,21.853516 27.603939,23.082669 27,24.798568 27,27.003906 c 0,2.199247 0.603939,3.9171 1.8125,5.152344 C 30.027263,33.385469 31.70825,34 33.855469,34 34.837066,34 35.759951,33.874161 36.625,33.621094 37.490049,33.361969 38.282239,32.982531 39,32.482422 L 39,26 l -4.876953,0 0,2 L 37,28 l 0,3.3125 0,0.002 c -0.411055,0.234899 -0.715134,0.40891 -1.230469,0.523391 C 35.254216,31.946346 34.66816,32 34.011719,32 32.330762,32 31.06735,31.539085 30.220703,30.617188 29.38019,29.695291 28.958984,28.823603 28.958984,27.003906 c 0,-1.825721 0.421206,-2.697242 1.261719,-3.61914 C 31.06735,22.462869 32.330762,22 34.011719,22 L 39,22 39,20 Z"/>
 <path fill="#fff" opacity=".2" d="m6 4c-1.108 0-2 0.892-2 2v1c0-1.108 0.892-2 2-2h36c1.108 0 2 0.892 2 2v-1c0-1.108-0.892-2-2-2h-36z"/>
 <path opacity=".2" d="m6 45c-1.108 0-2-0.892-2-2v-1c0 1.108 0.892 2 2 2h36c1.108 0 2-0.892 2-2v1c0 1.108-0.892 2-2 2h-36z"/>
</svg>
